synths/sAUD.svg

<svg width="42" height="42" viewBox="0 0 42 42" fill="none" xmlns="http://www.w3.org/2000/svg">
<g clip-path="url(#clip0_7277_57829)">
<mask id="mask0_7277_57829" style="mask-type:alpha" maskUnits="userSpaceOnUse" x="0" y="0" width="42" height="42">
<circle cx="21" cy="21" r="21" fill="url(#paint0_linear_7277_57829)"/>
</mask>
<g mask="url(#mask0_7277_57829)">
<circle cx="21" cy="21" r="21" fill="#34EDB3"/>
<circle cx="21" cy="21" r="18.2" fill="white"/>
</g>
<circle cx="21" cy="21" r="16.1" fill="#06061B"/>
<circle cx="21" cy="21" r="16.1" fill="#06061B"/>
<path d="M18.8406 24.0083H14.3046L13.4699 26.4968H11.3751L15.3599 15.3301H17.8641L21.8489 26.4968H19.6754L18.8406 24.0083ZM18.2264 22.2128L16.5726 17.3146L14.9189 22.2128H18.2264Z" fill="white"/>
<path d="M26.0584 26.4496C25.5334 26.4076 25.0399 26.2921 24.5779 26.1031C24.1159 25.9036 23.7169 25.6463 23.3809 25.3313C23.0449 25.0163 22.7772 24.6541 22.5777 24.2446C22.3782 23.8351 22.2732 23.3888 22.2627 22.9058H24.1999C24.2209 23.4203 24.3994 23.8508 24.7354 24.1973C25.0819 24.5333 25.5229 24.7276 26.0584 24.7801V21.6616L25.3182 21.5513C24.4677 21.4358 23.7904 21.1156 23.2864 20.5906C22.7929 20.0656 22.5462 19.3988 22.5462 18.5903C22.5462 18.1703 22.6407 17.7766 22.8297 17.4091C23.0187 17.0311 23.2759 16.7003 23.6014 16.4168C23.9269 16.1228 24.2997 15.8866 24.7197 15.7081C25.1502 15.5296 25.5964 15.4193 26.0584 15.3773V13.9126H27.2082V15.4088C27.6807 15.4718 28.1164 15.5978 28.5154 15.7868C28.9144 15.9653 29.2609 16.1963 29.5549 16.4798C29.8489 16.7633 30.0799 17.0888 30.2479 17.4563C30.4264 17.8238 30.5262 18.2176 30.5472 18.6376H28.6099C28.5889 18.2596 28.4472 17.9341 28.1847 17.6611C27.9327 17.3776 27.6072 17.1833 27.2082 17.0783V19.9606L27.7437 20.0393C28.1427 20.1023 28.5207 20.2126 28.8777 20.3701C29.2347 20.5276 29.5444 20.7323 29.8069 20.9843C30.0799 21.2363 30.2899 21.5408 30.4369 21.8978C30.5944 22.2443 30.6732 22.6381 30.6732 23.0791C30.6732 23.5516 30.5839 23.9821 30.4054 24.3706C30.2374 24.7486 29.9959 25.0846 29.6809 25.3786C29.3764 25.6621 29.0089 25.8983 28.5784 26.0873C28.1584 26.2658 27.7017 26.3813 27.2082 26.4338V28.0561H26.0584V26.4496ZM27.2082 24.7643C27.7017 24.6803 28.0849 24.5018 28.3579 24.2288C28.6309 23.9453 28.7674 23.5883 28.7674 23.1578C28.7674 22.7588 28.6362 22.4648 28.3737 22.2758C28.1112 22.0763 27.8119 21.9451 27.4759 21.8821L27.2082 21.8348V24.7643ZM26.0584 17.0311C25.6174 17.0941 25.2394 17.2568 24.9244 17.5193C24.6199 17.7713 24.4677 18.1126 24.4677 18.5431C24.4677 18.9106 24.5674 19.1888 24.7669 19.3778C24.9769 19.5563 25.2499 19.6718 25.5859 19.7243L26.0584 19.8031V17.0311Z" fill="white"/>
</g>
<defs>
<linearGradient id="paint0_linear_7277_57829" x1="21" y1="0" x2="21" y2="61.4091" gradientUnits="userSpaceOnUse">
<stop stop-color="#08021E"/>
<stop offset="1" stop-color="#1F0777"/>
</linearGradient>
<clipPath id="clip0_7277_57829">
<rect width="42" height="42" fill="white"/>
</clipPath>
</defs>
</svg>

<svg xmlns="http://www.w3.org/2000/svg" width="42" height="42" fill="none"><g clip-path="url(#a)"><mask id="c" width="42" height="42" x="0" y="0" maskUnits="userSpaceOnUse" style="mask-type:alpha"><circle cx="21" cy="21" r="21" fill="url(#b)"/></mask><g mask="url(#c)"><circle cx="21" cy="21" r="21" fill="#34EDB3"/><circle cx="21" cy="21" r="18.2" fill="#fff"/></g><circle cx="21" cy="21" r="16.1" fill="#06061B"/><circle cx="21" cy="21" r="16.1" fill="#06061B"/><path fill="#fff" d="M18.84 24.008h-4.535l-.835 2.489h-2.095L15.36 15.33h2.504l3.985 11.167h-2.174l-.834-2.489Zm-.614-1.795-1.653-4.898-1.654 4.898h3.307ZM26.058 26.45a4.922 4.922 0 0 1-1.48-.347 4.118 4.118 0 0 1-1.197-.772 3.7 3.7 0 0 1-.803-1.086c-.2-.41-.305-.856-.315-1.34H24.2c.02.515.2.946.535 1.292.347.336.788.53 1.323.583v-3.118l-.74-.11c-.85-.116-1.528-.436-2.032-.961-.493-.525-.74-1.192-.74-2 0-.42.095-.814.284-1.182.189-.378.446-.709.771-.992.326-.294.699-.53 1.119-.709.43-.178.876-.289 1.338-.33v-1.465h1.15v1.496c.473.063.908.189 1.307.378a3.6 3.6 0 0 1 1.04.693c.294.283.525.609.693.976.178.368.278.762.3 1.182H28.61a1.485 1.485 0 0 0-.425-.977 1.928 1.928 0 0 0-.977-.583v2.883l.536.078c.399.063.777.174 1.134.331.357.158.666.362.929.614.273.252.483.557.63.914.157.346.236.74.236 1.181a3.082 3.082 0 0 1-.992 2.3c-.305.283-.672.52-1.103.708-.42.179-.876.294-1.37.347v1.622h-1.15V26.45Zm1.15-1.686c.494-.084.877-.262 1.15-.535.273-.284.41-.64.41-1.071 0-.4-.132-.693-.394-.882-.263-.2-.562-.33-.898-.394l-.268-.047v2.93Zm-1.15-7.733a2.223 2.223 0 0 0-1.134.488c-.304.252-.456.594-.456 1.024 0 .368.1.646.299.835.21.178.483.294.819.346l.472.08V17.03Z"/></g><defs><linearGradient id="b" x1="21" x2="21" y1="0" y2="61.409" gradientUnits="userSpaceOnUse"><stop stop-color="#08021E"/><stop offset="1" stop-color="#1F0777"/></linearGradient><clipPath id="a"><path fill="#fff" d="M0 0h42v42H0z"/></clipPath></defs></svg>
